!!!OTL: 214. Bolgarish
!!!Genre:	Bolgarish
!!!Mode:	Minor
!!!Listening/dance:	dance
!!!One_Mode:	yes
**kern
*I"P1
*clefG2
*k[b-e-]
*g:
*M2/4
*>A
!LO:TX:a:i:t=G-minor
=1
16ffLL
16gg
16gg
16ggJJ
8.ggL
16ffJk
=2
16ggLL
16ffJ
24ee-L
24dd
24ccJJ
8.b-L
16ddJk
=3
8ffL
8ddJ
(8qff/
16ee-LL)
16dd
16ee-
16ggJJ
=4
(4ff
8gg)
8r
*>bM
*B-:
!LO:TX:a:i:t=Bb-major
=5
16ffLL
16gg
16gg
16ggJJ
8.ggL
16ffJk
=6
16ggLL
16ffJ
24ee-L
24dd
24ccJJ
8.b-L
16ddJk
=7
8ffL
8ddJ
24ddLL
24ee-
24ddJ
24ccL
24dd
24ccJJ
=8
4.dd
8r
=9:|!|:
*>eM
*g:
*>B
!LO:TX:a:i:t=G-minor
16aLL
16b-
16cc
16dd-XJJ
(8.ccL
16b-Jk)
=10
16ddnLL
16cc
16b-
16aJJ
8.gL
16fJk
=11
8b-L
8ccJ
16ccLL
16b-
16ff
16ee-JJ
=12
4.dd
8r
=13
16aLL
16b-
16cc
16dd-XJJ
8.ccL
16b-Jk
=14
16ddnLL
16cc
16b-
16aJJ
8.gL
16fJk
=15
8b-L
8ccJ
24b-LL
24cc
24b-J
24a-XL
24g
24fJJ
=16
4.g
8r
=:|!
*-
